img/platforms/3.svg

<?xml version="1.0" encoding="UTF-8" standalone="no"?>
<!DOCTYPE svg PUBLIC "-//W3C//DTD SVG 1.1//EN" "http://www.w3.org/Graphics/SVG/1.1/DTD/svg11.dtd">
<svg width="100%" height="100%" viewBox="0 0 34 31" version="1.1" xmlns="http://www.w3.org/2000/svg" xmlns:xlink="http://www.w3.org/1999/xlink" xml:space="preserve" xmlns:serif="http://www.serif.com/" style="fill-rule:evenodd;clip-rule:evenodd;stroke-linejoin:round;stroke-miterlimit:2;">
    <g transform="matrix(0.951056,0,0,0.951056,0.832042,0.758626)">
        <path d="M31,31L3,31C1.354,31 0,29.646 0,28L0,3C-0,1.354 1.354,0 3,0L31,0C32.646,-0 34,1.354 34,3L34,28C34,29.646 32.646,31 31,31ZM4,24.5C4,25.323 4.677,26 5.5,26L11,26L11,24L6.5,24C6.226,24 6,23.774 6,23.5L6,20.5C6,20.226 6.226,20 6.5,20L11,20L11,18L5.5,18C4.677,18 4,18.677 4,19.5L4,24.5ZM12,6.5C12,5.677 11.323,5 10.5,5L5.5,5C4.677,5 4,5.677 4,6.5L4,11.5C4,12.323 4.677,13 5.5,13L9,13L9,11L6.5,11C6.226,11 6,10.774 6,10.5L6,7.5C6,7.226 6.226,7 6.5,7L9.5,7C9.774,7 10,7.226 10,7.5L10,13.5C10,13.774 9.774,14 9.5,14L4,14L4,16L10.5,16C11.323,16 12,15.323 12,14.5L12,6.5ZM12,19.5L12,24.5C12,25.323 12.677,26 13.5,26L18.5,26C19.323,26 20,25.323 20,24.5L20,19.5C20,18.677 19.323,18 18.5,18L13.5,18C12.677,18 12,18.677 12,19.5ZM21,6.5C21,5.677 20.323,5 19.5,5L14.5,5C13.677,5 13,5.677 13,6.5L13,11.5C13,12.323 13.677,13 14.5,13L19.5,13C20.323,13 21,12.323 21,11.5L21,6.5ZM30,6.5C30,5.677 29.323,5 28.5,5L23.5,5C22.677,5 22,5.677 22,6.5L22,11.5C22,12.323 22.677,13 23.5,13L27,13L27,11L24.5,11C24.226,11 24,10.774 24,10.5L24,7.5C24,7.226 24.226,7 24.5,7L27.5,7C27.774,7 28,7.226 28,7.5L28,13.5C28,13.774 27.774,14 27.5,14L22,14L22,16L28.5,16C29.323,16 30,15.323 30,14.5L30,6.5ZM30,18L22.5,18C21.677,18 21,18.677 21,19.5L21,26L23,26L23,20.5C23,20.226 23.226,20 23.5,20L24.5,20L24.5,26L26.5,26L26.5,20L28,20L28,26L30,26L30,18ZM18.5,11L15.5,11C15.226,11 15,10.774 15,10.5L15,7.5C15,7.226 15.226,7 15.5,7L18.5,7C18.774,7 19,7.226 19,7.5L19,10.5C19,10.774 18.774,11 18.5,11ZM14.5,20L17.5,20C17.774,20 18,20.226 18,20.5L18,23.5C18,23.774 17.774,24 17.5,24L14.5,24C14.226,24 14,23.774 14,23.5L14,20.5C14,20.226 14.226,20 14.5,20Z" style="fill:rgb(76,76,76);fill-rule:nonzero;"/>
    </g>
</svg>

<svg xmlns="http://www.w3.org/2000/svg" preserveAspectRatio="xMidYMax meet" viewBox="0 0 34 31">
<g>
	<path d="M31,31H3a3,3,0,0,1-3-3V3A3,3,0,0,1,3,0H31a3,3,0,0,1,3,3V28A3,3,0,0,1,31,31ZM4,24.5A1.5,1.5,0,0,0,5.5,26H11V24H6.5a.5.5,0,0,1-.5-.5v-3a.5.5,0,0,1,.5-.5H11V18H5.5A1.5,1.5,0,0,0,4,19.5Zm8-18A1.5,1.5,0,0,0,10.5,5h-5A1.5,1.5,0,0,0,4,6.5v5A1.5,1.5,0,0,0,5.5,13H9V11H6.5a.5.5,0,0,1-.5-.5v-3A.5.5,0,0,1,6.5,7h3a.5.5,0,0,1,.5.5v6a.5.5,0,0,1-.5.5H4v2h6.5A1.5,1.5,0,0,0,12,14.5Zm0,13v5A1.5,1.5,0,0,0,13.5,26h5A1.5,1.5,0,0,0,20,24.5v-5A1.5,1.5,0,0,0,18.5,18h-5A1.5,1.5,0,0,0,12,19.5Zm9-13A1.5,1.5,0,0,0,19.5,5h-5A1.5,1.5,0,0,0,13,6.5v5A1.5,1.5,0,0,0,14.5,13h5A1.5,1.5,0,0,0,21,11.5Zm9,0A1.5,1.5,0,0,0,28.5,5h-5A1.5,1.5,0,0,0,22,6.5v5A1.5,1.5,0,0,0,23.5,13H27V11H24.5a.5.5,0,0,1-.5-.5v-3a.5.5,0,0,1,.5-.5h3a.5.5,0,0,1,.5.5v6a.5.5,0,0,1-.5.5H22v2h6.5A1.5,1.5,0,0,0,30,14.5ZM30,18H22.5A1.5,1.5,0,0,0,21,19.5V26h2V20.5a.5.5,0,0,1,.5-.5h1v6h2V20H28v6h2ZM18.5,11h-3a.5.5,0,0,1-.5-.5v-3a.5.5,0,0,1,.5-.5h3a.5.5,0,0,1,.5.5v3A.5.5,0,0,1,18.5,11Zm-4,9h3a.5.5,0,0,1,.5.5v3a.5.5,0,0,1-.5.5h-3a.5.5,0,0,1-.5-.5v-3A.5.5,0,0,1,14.5,20Z"/>
	</g>
</svg>
